docs/img/type/star-2.svg

<svg width="890" height="1824" fill="none" xmlns="http://www.w3.org/2000/svg"><path d="M1342.19 869.582c13.24 5.338 14.86 23.422 2.79 31.033l-268.61 169.355a22.47 22.47 0 00-8.66 10.13l-112.044 260.24c-5.828 13.54-24.758 14.25-31.584 1.19L797.113 1098.5a22.527 22.527 0 00-10.969-10.21L482.277 956.147c-13.433-5.842-14.173-24.617-1.24-31.497l283.898-151.043a22.502 22.502 0 0010.724-12.594l93.487-273.806c4.898-14.346 24.477-16.103 31.851-2.858l144.953 260.369a22.492 22.492 0 0011.24 9.923l285 114.941z" stroke="#fff" stroke-opacity=".3" stroke-width="5"/><path d="M1187.61 888.583c5.67 2.287 6.37 10.038 1.2 13.3l-175.35 110.547a12.553 12.553 0 00-4.81 5.63l-73.552 170.85c-2.498 5.8-10.611 6.1-13.536.5l-83.503-159.82a12.475 12.475 0 00-6.094-5.68l-198.511-86.324c-5.757-2.504-6.074-10.55-.532-13.499l185.735-98.817a12.502 12.502 0 005.958-6.996l61.527-180.204c2.1-6.149 10.491-6.901 13.651-1.225l95.241 171.077a12.5 12.5 0 006.246 5.513l186.33 75.148z" stroke="#fff" stroke-opacity=".6" stroke-width="5"/><path d="M1460.55 861.775c13.23 5.338 14.86 23.422 2.79 31.033l-346 218.142a22.517 22.517 0 00-8.67 10.14l-145.1 337.04c-5.828 13.53-24.759 14.24-31.584 1.18l-164.72-315.28a22.478 22.478 0 00-10.969-10.21L364.591 963.476c-13.434-5.841-14.173-24.617-1.241-31.497l366.471-194.975a22.498 22.498 0 0010.725-12.593l121.367-355.465c4.898-14.346 24.478-16.103 31.852-2.858l187.885 337.487a22.485 22.485 0 0011.24 9.922l367.66 148.278z" stroke="#fff" stroke-opacity=".2" stroke-width="5"/></svg>

<svg width="890" height="1824" viewBox="0 0 890 1824" fill="none" xmlns="http://www.w3.org/2000/svg">
<path d="M1342.19 869.582C1355.43 874.92 1357.05 893.004 1344.98 900.615L1076.37 1069.97C1072.53 1072.39 1069.5 1075.93 1067.71 1080.1L955.666 1340.34C949.838 1353.88 930.908 1354.59 924.082 1341.53L797.113 1098.5C794.731 1093.95 790.86 1090.34 786.144 1088.29L482.277 956.147C468.844 950.305 468.104 931.53 481.037 924.65L764.935 773.607C769.979 770.923 773.813 766.42 775.659 761.013L869.146 487.207C874.044 472.861 893.623 471.104 900.997 484.349L1045.95 744.718C1048.45 749.214 1052.42 752.716 1057.19 754.641L1342.19 869.582Z" stroke="white" stroke-opacity="0.3" stroke-width="5"/>
<path d="M1187.61 888.583C1193.28 890.87 1193.98 898.621 1188.81 901.883L1013.46 1012.43C1011.33 1013.78 1009.65 1015.74 1008.65 1018.06L935.098 1188.91C932.6 1194.71 924.487 1195.01 921.562 1189.41L838.059 1029.59C836.736 1027.05 834.586 1025.05 831.965 1023.91L633.454 937.586C627.697 935.082 627.38 927.036 632.922 924.087L818.657 825.27C821.459 823.779 823.589 821.278 824.615 818.274L886.142 638.07C888.242 631.921 896.633 631.169 899.793 636.845L995.034 807.922C996.425 810.42 998.629 812.366 1001.28 813.435L1187.61 888.583Z" stroke="white" stroke-opacity="0.6" stroke-width="5"/>
<path d="M1460.55 861.775C1473.78 867.113 1475.41 885.197 1463.34 892.808L1117.34 1110.95C1113.49 1113.38 1110.47 1116.91 1108.67 1121.09L963.57 1458.13C957.742 1471.66 938.811 1472.37 931.986 1459.31L767.266 1144.03C764.885 1139.47 761.013 1135.87 756.297 1133.82L364.591 963.476C351.157 957.635 350.418 938.859 363.35 931.979L729.821 737.004C734.866 734.32 738.7 729.818 740.546 724.411L861.913 368.946C866.811 354.6 886.391 352.843 893.765 366.088L1081.65 703.575C1084.15 708.071 1088.12 711.573 1092.89 713.497L1460.55 861.775Z" stroke="white" stroke-opacity="0.2" stroke-width="5"/>
</svg>
